X:1
T: the Auld Fiddler
C:Billy McGuire
D:Filska "Time and Tide"
F:http://www.thesession.org/tunes/display/7392
F:http://www.ibiblio.org/fiddlers/AU_AY.htm
Z:fiel@thesession.org 2007-6-23
N:Written in honour of Bert Murray.
R:Reel
M:C
L:1/8
K:A
fg |\
"A"a2 ed "E7"cdBc | "A"ABcd eaga |\
[1,3 "E"be~e2 "A"c'e~e2 | "E7"d'ec'e be :|\
[2,4 "E7"be~e2 ^de=de | ceBe "A"A2 :|
GA |\
"E7"BE~E2 BEcE | dEeE dEcE | "E7"BE~E2 BEcE |\
dBGB "A"A2 GA  | "E7"BE~E2 "A"cE~E2 | "E7"dEeE dEcE |
"E7"BE~E2 ^DE=DE | CEB,E "A"A,2 |[| GA |\
"E7"BE~E2 BEcE | dEeE dEcE | "E7"BE~E2 BEcE  | dBGB "A"A2 GA |
"E7"BE~E2 "A"cE~E2 | "E7"dEeE fEgE |\
["1-N" "A"ae~e2 "E7"^de=de | ceBe "A"A2 "^D.C."y|]\
|["Coda" "A"ae~e2 ^de=de | ^defg "A"a2 |]
